X: 1
T: Mother's Waltz
M: 3/4
L: 1/8
K: F
c2 |: ~fe fg af| c2 ~c=B cd | B2 ~BA Bc | A6 | d3 c BA | G3 F EF | cd cG AB | A4 c2|
~fe fg af| c2 ~c=B cd | B2 ~BA Bc | A6 | d2 dc Bd| cd cA FA | BA GF EG |[1 F4 c2 :| [2 F3 D DF|
|: A3 D FA | B4 ~A2 | G2 c3 B | A4 A2 | D2 DE FA | G3 F EF | cd  cG AB | A3 D DF
A3 D FA | B4 ~A2 | G2 c3 B | A4 A2 | D2 DE FA | G3 F ED | ^CE F2 E2 |[1 D3 D DF :|[2 ~D6 |]

